dist/svg/static/train-large.svg

<svg xmlns="http://www.w3.org/2000/svg" width="48" height="48" viewBox="0 0 48 48"><g fill="none" stroke="currentColor"><path d="M28.9 37.1c-.6.3-1.2.4-1.8.4h-4c-.6 0-1.3-.2-1.8-.4l-6-3.1c-1.6-1.1-2.8-3-2.8-5V12.5c0-2.8 2.4-5 5.2-5h15c2.8 0 4.8 2.2 4.8 5V29c0 2-.8 3.8-2.4 5l-6.2 3.1zM9 46l8-8M33 38l8 8"/><path d="M18 26.5a2.5 2.5 0 1 1 0 5 2.5 2.5 0 0 1 0-5zM32 26.5a2.5 2.5 0 1 1 0 5 2.5 2.5 0 0 1 0-5zM16 3.5h18M19.4 3.5l4 4M30.4 3.5l-4 4M14 9l6.5 14.5H29l7.063-14.632M14.684 10.5h20.6M19.154 20.5H30.5"/></g></svg>

<?xml version="1.0" encoding="UTF-8" standalone="no"?>
<svg width="48px" height="48px" viewBox="0 0 48 48" version="1.1" xmlns="http://www.w3.org/2000/svg" xmlns:xlink="http://www.w3.org/1999/xlink">
    <!-- Generator: sketchtool 46.2 (44496) - http://www.bohemiancoding.com/sketch -->
    <title>train-large</title>
    <desc>Created with sketchtool.</desc>
    <defs></defs>
    <g id="icons-published" stroke="none" stroke-width="1" fill="none" fill-rule="evenodd">
        <g id="briefing" transform="translate(-1152.000000, -2202.000000)"></g>
        <g id="train-large" stroke="#000000">
            <path d="M28.9,37.1 C28.3,37.4 27.7,37.5 27.1,37.5 L23.1,37.5 C22.5,37.5 21.8,37.3 21.3,37.1 L15.3,34 C13.7,32.9 12.5,31 12.5,29 L12.5,12.5 C12.5,9.7 14.9,7.5 17.7,7.5 L32.7,7.5 C35.5,7.5 37.5,9.7 37.5,12.5 L37.5,29 C37.5,31 36.7,32.8 35.1,34 C35.1,34 28.9,37.1 28.9,37.1 Z M9,46 L17,38 L9,46 Z M33,38 L41,46 L33,38 Z" id="Shape"></path>
            <path d="M18,26.5 C19.4,26.5 20.5,27.6 20.5,29 C20.5,30.4 19.4,31.5 18,31.5 C16.6,31.5 15.5,30.4 15.5,29 C15.5,27.6 16.6,26.5 18,26.5 Z M32,26.5 C33.4,26.5 34.5,27.6 34.5,29 C34.5,30.4 33.4,31.5 32,31.5 C30.6,31.5 29.5,30.4 29.5,29 C29.5,27.6 30.6,26.5 32,26.5 Z M16,3.5 L34,3.5 L16,3.5 Z M19.4,3.5 L23.4,7.5 L19.4,3.5 Z M30.4,3.5 L26.4,7.5 L30.4,3.5 Z M14.7,10.5 L35.3,10.5 L14.7,10.5 Z M19.2,20.5 L30.5,20.5 L19.2,20.5 Z" id="Shape"></path>
            <polyline id="Path" points="14 9 20.5 23.5 29 23.5 36.1 8.9"></polyline>
        </g>
    </g>
</svg>
